agir/front/components/allPages/PushModal/images/modal-app-modal-logo.svg

<svg width="123" height="123" viewBox="0 0 123 123" fill="none" xmlns="http://www.w3.org/2000/svg">
<g filter="url(#filter0_dd)">
<rect x="11" y="8" width="101" height="101" rx="20.2" fill="#F4ED0F"/>
<g clip-path="url(#clip0)">
<path d="M68.1404 90.4491L52.5006 74.8634C43.8629 66.2556 43.7951 52.3673 52.3492 43.8428C60.9032 35.3184 74.8399 35.3859 83.4775 43.9937C92.1152 52.6014 92.183 66.4898 83.6289 75.0143L68.1404 90.4491Z" fill="white"/>
<path fill-rule="evenodd" clip-rule="evenodd" d="M44.717 63.6724L57.0599 75.9726L69.4029 63.6724C76.2197 56.8791 76.2197 45.8651 69.4029 39.0719C62.5861 32.2787 51.5338 32.2787 44.717 39.0719C37.9001 45.8651 37.9001 56.8791 44.717 63.6724ZM57.0599 83.4075L73.1332 67.3898C82.0103 58.5435 82.0103 44.2008 73.1332 35.3545C64.2562 26.5082 49.8637 26.5082 40.9866 35.3545C32.1096 44.2008 32.1096 58.5435 40.9866 67.3898L57.0599 83.4075Z" fill="#000A2C"/>
</g>
</g>
<defs>
<filter id="filter0_dd" x="0" y="0" width="123" height="123" filterUnits="userSpaceOnUse" color-interpolation-filters="sRGB">
<feFlood flood-opacity="0" result="BackgroundImageFix"/>
<feColorMatrix in="SourceAlpha" type="matrix" values="0 0 0 0 0 0 0 0 0 0 0 0 0 0 0 0 0 0 127 0"/>
<feMorphology radius="3" operator="dilate" in="SourceAlpha" result="effect1_dropShadow"/>
<feOffset dy="3"/>
<feGaussianBlur stdDeviation="4"/>
<feColorMatrix type="matrix" values="0 0 0 0 0 0 0 0 0 0 0 0 0 0 0 0 0 0 0.15 0"/>
<feBlend mode="normal" in2="BackgroundImageFix" result="effect1_dropShadow"/>
<feColorMatrix in="SourceAlpha" type="matrix" values="0 0 0 0 0 0 0 0 0 0 0 0 0 0 0 0 0 0 127 0"/>
<feOffset/>
<feGaussianBlur stdDeviation="1.5"/>
<feColorMatrix type="matrix" values="0 0 0 0 0 0 0 0 0 0 0 0 0 0 0 0 0 0 0.6 0"/>
<feBlend mode="normal" in2="effect1_dropShadow" result="effect2_dropShadow"/>
<feBlend mode="normal" in="SourceGraphic" in2="effect2_dropShadow" result="shape"/>
</filter>
<clipPath id="clip0">
<rect width="56.1684" height="61.8367" fill="white" transform="translate(34.1888 28.6123)"/>
</clipPath>
</defs>
</svg>

<svg width="123" height="123" fill="none" xmlns="http://www.w3.org/2000/svg"><g filter="url(#a)"><rect x="11" y="8" width="101" height="101" rx="20.2" fill="#F4ED0F"/><g clip-path="url(#b)"><path d="M68.14 90.45 52.5 74.862c-8.637-8.607-8.705-22.496-.15-31.02 8.553-8.525 22.49-8.457 31.128.15 8.637 8.608 8.705 22.497.15 31.021L68.14 90.45Z" fill="#fff"/><path fill-rule="evenodd" clip-rule="evenodd" d="m44.717 63.672 12.343 12.3 12.343-12.3c6.817-6.793 6.817-17.807 0-24.6-6.817-6.793-17.87-6.793-24.686 0-6.817 6.793-6.817 17.807 0 24.6ZM57.06 83.408 73.133 67.39c8.877-8.846 8.877-23.19 0-32.035-8.877-8.847-23.27-8.847-32.146 0-8.877 8.846-8.877 23.189 0 32.035L57.06 83.407Z" fill="#000A2C"/></g></g><defs><clipPath id="b"><path fill="#fff" transform="translate(34.189 28.612)" d="M0 0h56.168v61.837H0z"/></clipPath><filter id="a" x="0" y="0" width="123" height="123" filterUnits="userSpaceOnUse" color-interpolation-filters="sRGB"><feFlood flood-opacity="0" result="BackgroundImageFix"/><feColorMatrix in="SourceAlpha" values="0 0 0 0 0 0 0 0 0 0 0 0 0 0 0 0 0 0 127 0"/><feMorphology radius="3" operator="dilate" in="SourceAlpha" result="effect1_dropShadow"/><feOffset dy="3"/><feGaussianBlur stdDeviation="4"/><feColorMatrix values="0 0 0 0 0 0 0 0 0 0 0 0 0 0 0 0 0 0 0.15 0"/><feBlend in2="BackgroundImageFix" result="effect1_dropShadow"/><feColorMatrix in="SourceAlpha" values="0 0 0 0 0 0 0 0 0 0 0 0 0 0 0 0 0 0 127 0"/><feOffset/><feGaussianBlur stdDeviation="1.5"/><feColorMatrix values="0 0 0 0 0 0 0 0 0 0 0 0 0 0 0 0 0 0 0.6 0"/><feBlend in2="effect1_dropShadow" result="effect2_dropShadow"/><feBlend in="SourceGraphic" in2="effect2_dropShadow" result="shape"/></filter></defs></svg>
